X:290
T: Glenside Cottage
T: Both\'an Thaobh an Ghleanna
S: B.Breathnach: "Ceol Rince na hEireann" II/296
Z: B.Black
L: 1/8
M: 4/4
R: reel
K: Edor
A||B2 AF DEFA|(3Bcd Ad Bdef|dBAF DEFA|(3Bcd AF FEEA|
B2 AF DEFA|(3Bcd Ad Bdef|dBAF DEFA|(3Bcd AF FE E2 ||
Beed BddA|Beef gfed|Beed Bdef|dBAF FEEA|
Beed BddA|Beef gfga|bgaf gfef|dBAF FE E2 ||
